lib/brands/icons/twitter-verified-badge.svg

<svg xmlns="http://www.w3.org/2000/svg" fill="none" aria-hidden="true" viewBox="0 0 48 48"><g id="twitter-verified-badge-Icon"><path id="Vector" fill="#1DA1F2" d="M42 24.8438C42 26.1023 41.6977 27.2695 41.093 28.3383C40.4883 29.407 39.6797 30.2438 38.6602 30.8273C38.6883 31.0172 38.7023 31.3125 38.7023 31.7133C38.7023 33.6188 38.0625 35.2359 36.7969 36.5719C35.5242 37.9148 33.9914 38.5828 32.1984 38.5828C31.3969 38.5828 30.6305 38.4352 29.9062 38.1398C29.3438 39.293 28.5352 40.2211 27.4734 40.9312C26.4187 41.6484 25.2586 42 24 42C22.7133 42 21.5461 41.6555 20.5055 40.9523C19.4578 40.2563 18.6562 39.3211 18.0938 38.1398C17.3695 38.4352 16.6102 38.5828 15.8016 38.5828C14.0086 38.5828 12.4687 37.9148 11.182 36.5719C9.89531 35.2359 9.25547 33.6117 9.25547 31.7133C9.25547 31.5023 9.28359 31.207 9.33281 30.8273C8.31328 30.2367 7.50469 29.407 6.9 28.3383C6.30234 27.2695 6 26.1023 6 24.8438C6 23.5078 6.3375 22.2773 7.00547 21.1664C7.67344 20.0555 8.57344 19.2328 9.69844 18.6984C9.40312 17.8969 9.25547 17.0883 9.25547 16.2867C9.25547 14.3883 9.89531 12.7641 11.182 11.4281C12.4687 10.0922 14.0086 9.41719 15.8016 9.41719C16.6031 9.41719 17.3695 9.56484 18.0938 9.86016C18.6562 8.70703 19.4648 7.77891 20.5266 7.06875C21.5813 6.35859 22.7414 6 24 6C25.2586 6 26.4187 6.35859 27.4734 7.06172C28.5281 7.77188 29.3438 8.7 29.9062 9.85312C30.6305 9.55781 31.3898 9.41016 32.1984 9.41016C33.9914 9.41016 35.5242 10.0781 36.7969 11.4211C38.0695 12.7641 38.7023 14.3812 38.7023 16.2797C38.7023 17.1656 38.5687 17.9672 38.3016 18.6914C39.4266 19.2258 40.3266 20.0484 40.9945 21.1594C41.6625 22.2773 42 23.5078 42 24.8438V24.8438ZM23.2336 30.2648L30.6656 19.1344C30.8555 18.8391 30.9117 18.5156 30.8484 18.1711C30.7781 17.8266 30.6023 17.5523 30.307 17.3695C30.0117 17.1797 29.6883 17.1164 29.3438 17.1656C28.9922 17.2219 28.7109 17.3906 28.5 17.6859L21.9539 27.5297L18.9375 24.5203C18.6703 24.2531 18.3609 24.1266 18.0164 24.1406C17.6648 24.1547 17.3625 24.2812 17.0953 24.5203C16.8563 24.7594 16.7367 25.0617 16.7367 25.4273C16.7367 25.7859 16.8563 26.0883 17.0953 26.3344L21.2367 30.4758L21.4406 30.6375C21.6797 30.7992 21.9258 30.8766 22.1648 30.8766C22.6359 30.8695 22.9945 30.6727 23.2336 30.2648V30.2648Z"/></g></svg>

<svg xmlns="http://www.w3.org/2000/svg" fill="none" aria-hidden="true" viewBox="0 0 48 48"><path fill="#1DA1F2" d="M42 24.844a6.982 6.982 0 0 1-.907 3.494c-.605 1.069-1.413 1.906-2.433 2.49.028.19.042.485.042.885 0 1.906-.64 3.523-1.905 4.859-1.273 1.343-2.806 2.01-4.599 2.01a6.02 6.02 0 0 1-2.292-.442 6.97 6.97 0 0 1-2.433 2.791A6.045 6.045 0 0 1 24 42c-1.287 0-2.454-.344-3.494-1.048-1.048-.696-1.85-1.63-2.412-2.812a5.994 5.994 0 0 1-2.292.443c-1.793 0-3.333-.668-4.62-2.011-1.287-1.336-1.927-2.96-1.927-4.859 0-.21.029-.506.078-.886-1.02-.59-1.828-1.42-2.433-2.489a7.05 7.05 0 0 1-.9-3.494c0-1.336.338-2.567 1.005-3.678.668-1.11 1.568-1.933 2.693-2.468a6.952 6.952 0 0 1-.443-2.411c0-1.899.64-3.523 1.927-4.859 1.287-1.336 2.827-2.01 4.62-2.01a6.03 6.03 0 0 1 2.292.442 6.972 6.972 0 0 1 2.433-2.791A6.098 6.098 0 0 1 24 6c1.259 0 2.419.359 3.473 1.062a7.026 7.026 0 0 1 2.433 2.791 5.995 5.995 0 0 1 2.292-.443c1.793 0 3.326.668 4.599 2.011 1.273 1.343 1.905 2.96 1.905 4.859 0 .886-.133 1.687-.4 2.411 1.125.535 2.025 1.357 2.693 2.468A7.059 7.059 0 0 1 42 24.844Zm-18.766 5.42 7.432-11.13a1.29 1.29 0 0 0 .182-.963 1.178 1.178 0 0 0-.541-.802 1.37 1.37 0 0 0-.963-.203 1.233 1.233 0 0 0-.844.52l-6.546 9.844-3.017-3.01c-.267-.267-.576-.393-.92-.38a1.431 1.431 0 0 0-.922.38 1.23 1.23 0 0 0-.358.907c0 .359.12.661.358.907l4.142 4.142.204.162c.239.161.485.239.724.239.47-.008.83-.204 1.069-.612Z"/></svg>
